icons/person-plus.svg

<svg xmlns="http://www.w3.org/2000/svg" width="24" height="24" viewBox="0 0 24 24">
  <path d="M10,16 C12.9230769,16 15.8461538,16.9493754 15.9941334,19.3106425 L16,19.5 L16,20.5 C16,20.975 16,21.90125 15.142625,21.9926875 L15,22 L3,22 C2.1,22 2.01,21.19 2.001,20.6635 L2,19.5 C2,17.0641026 4.84812623,16.0522682 7.76928134,16.0019808 L8,16 L10,16 Z M9,6 C11.209139,6 13,7.790861 13,10 C13,12.209139 11.209139,14 9,14 C6.790861,14 5,12.209139 5,10 C5,7.790861 6.790861,6 9,6 Z M18,2 C18.5128358,2 18.9355072,2.38604019 18.9932723,2.88337887 L19,3 L18.999,5 L21,5 C21.5522847,5 22,5.44771525 22,6 C22,6.51283584 21.6139598,6.93550716 21.1166211,6.99327227 L21,7 L18.999,7 L19,9 C19,9.55228475 18.5522847,10 18,10 C17.4871642,10 17.0644928,9.61395981 17.0067277,9.11662113 L17,9 L16.999,7 L15,7 C14.4477153,7 14,6.55228475 14,6 C14,5.48716416 14.3860402,5.06449284 14.8833789,5.00672773 L15,5 L16.999,5 L17,3 C17,2.44771525 17.4477153,2 18,2 Z"/>
</svg>

<svg xmlns="http://www.w3.org/2000/svg" viewBox="0 0 24 24">
  <path d="M10 16c2.92 0 5.85.95 6 3.31v1.19c0 .48 0 1.4-.86 1.5H3c-.9 0-.99-.81-1-1.34V19.5c0-2.44 2.85-3.45 5.77-3.5H10zM9 6a4 4 0 1 1 0 8 4 4 0 0 1 0-8zm9-4a1 1 0 0 1 1 .88V5h2a1 1 0 0 1 .12 2H19v2a1 1 0 0 1-2 .12V7h-2a1 1 0 0 1-.12-2H17V3a1 1 0 0 1 1-1z"/>
</svg>
